X: 20062
T: The WASHING DAY
C:
%R: march, reel
B: Elias Howe "The Musician's Companion" 1843 p.6 #2
S: http://imslp.org/wiki/The_Musician's_Companion_(Howe,_Elias)
Z: 2015 John Chambers <jc:trillian.mit.edu>
M: 2/4
L: 1/8
K: G
% - - - - - - - - - - - - - - - - - - - - - - - - -
e/f/ |\
gedB | cdef | gedB | A3 e/f/ |\
gedB | cde g | dBcA | G3 :|
|: G/A/ |\
BBB A/B/ | ccc G/A/ | BBB A/B/ | A3 G/A/ |\
BBB A/B/ | ccce | dBcA | G3 :|
% - - - - - - - - - - - - - - - - - - - - - - - - -

%%sep 1 1 500

